lib/icons/cog.svg

<svg width="16" height="16" viewBox="0 0 16 16" fill="none" xmlns="http://www.w3.org/2000/svg">
<path fill-rule="evenodd" clip-rule="evenodd" d="M6.42025 0.757464C6.53154 0.312297 6.93152 0 7.39039 0H8.60961C9.06848 0 9.46846 0.312297 9.57975 0.757464L9.9185 2.11245L10.9261 2.44833L11.8816 1.81135C12.2782 1.54693 12.8063 1.59923 13.1434 1.93629L14.0637 2.8566C14.4008 3.19367 14.4531 3.72179 14.1887 4.11841L13.6009 5L14.3209 6.07991L15.3162 6.4117C15.7246 6.54781 16 6.92995 16 7.36038V8.63962C16 9.07005 15.7246 9.45219 15.3162 9.5883L14.3209 9.92009L13.6009 11L14.1887 11.8816C14.4531 12.2782 14.4008 12.8063 14.0637 13.1434L13.1434 14.0637C12.8063 14.4008 12.2782 14.4531 11.8816 14.1887L10.9261 13.5517L9.9185 13.8875L9.57975 15.2425C9.46846 15.6877 9.06848 16 8.60961 16H7.39039C6.93152 16 6.53154 15.6877 6.42025 15.2425L6.0815 13.8875L5.07388 13.5517L4.11841 14.1887C3.72179 14.4531 3.19367 14.4008 2.8566 14.0637L1.93629 13.1434C1.59923 12.8063 1.54693 12.2782 1.81135 11.8816L2.44833 10.9261L2.11245 9.9185L0.757464 9.57975C0.312297 9.46846 0 9.06848 0 8.60961V7.39039C0 6.93152 0.312297 6.53154 0.757464 6.42025L2.11245 6.0815L2.44833 5.07388L1.81135 4.11841C1.54693 3.72179 1.59923 3.19367 1.93629 2.8566L2.8566 1.93629C3.19367 1.59923 3.72179 1.54693 4.11841 1.81135L5.07388 2.44833L6.0815 2.11245L6.42025 0.757464ZM8.60961 1L7.39039 1L7.05164 2.35499C6.96872 2.68668 6.72208 2.95302 6.39773 3.06114L5.39011 3.39701C5.09735 3.4946 4.77594 3.45155 4.51918 3.28038L3.56371 2.6434L2.6434 3.56371L3.28038 4.51918C3.45155 4.77594 3.4946 5.09735 3.39701 5.39011L3.06114 6.39773C2.95302 6.72208 2.68668 6.96872 2.35499 7.05164L1 7.39039V8.60961L2.35499 8.94836C2.68668 9.03128 2.95302 9.27792 3.06114 9.60227L3.39701 10.6099C3.4946 10.9026 3.45155 11.2241 3.28038 11.4808L2.6434 12.4363L3.56371 13.3566L4.51918 12.7196C4.77594 12.5484 5.09735 12.5054 5.39011 12.603L6.39773 12.9389C6.72208 13.047 6.96872 13.3133 7.05164 13.645L7.39039 15H8.60961L8.94836 13.645C9.03128 13.3133 9.27792 13.047 9.60227 12.9389L10.6099 12.603C10.9026 12.5054 11.2241 12.5484 11.4808 12.7196L12.4363 13.3566L13.3566 12.4363L12.7689 11.5547C12.5449 11.2188 12.5449 10.7812 12.7689 10.4453L13.4888 9.36539C13.6122 9.18036 13.7937 9.04173 14.0046 8.97141L15 8.63962V7.36038L14.0046 7.02859C13.7937 6.95827 13.6122 6.81964 13.4888 6.63461L12.7689 5.5547C12.5449 5.2188 12.5449 4.7812 12.7689 4.4453L13.3566 3.56371L12.4363 2.6434L11.4808 3.28038C11.2241 3.45155 10.9026 3.4946 10.6099 3.39701L9.60227 3.06114C9.27792 2.95302 9.03128 2.68668 8.94836 2.35499L8.60961 1ZM8 5.5C6.61929 5.5 5.5 6.61929 5.5 8C5.5 9.38071 6.61929 10.5 8 10.5C9.38071 10.5 10.5 9.38071 10.5 8C10.5 6.61929 9.38071 5.5 8 5.5ZM4.5 8C4.5 6.067 6.067 4.5 8 4.5C9.933 4.5 11.5 6.067 11.5 8C11.5 9.933 9.933 11.5 8 11.5C6.067 11.5 4.5 9.933 4.5 8Z" fill="#7A859E"/>
</svg>

<svg width="16" height="16" fill="none" xmlns="http://www.w3.org/2000/svg"><path fill-rule="evenodd" clip-rule="evenodd" d="M6.42.757A1 1 0 0 1 7.39 0h1.22a1 1 0 0 1 .97.757l.338 1.355 1.008.336.956-.637a1 1 0 0 1 1.261.125l.92.92a1 1 0 0 1 .126 1.262L13.6 5l.72 1.08.995.332A1 1 0 0 1 16 7.36v1.28a1 1 0 0 1-.684.948l-.995.332L13.6 11l.588.882a1 1 0 0 1-.125 1.261l-.92.92a1 1 0 0 1-1.262.126l-.956-.637-1.008.335-.338 1.355a1 1 0 0 1-.97.758H7.39a1 1 0 0 1-.97-.758l-.338-1.355-1.008-.335-.956.637a1 1 0 0 1-1.261-.125l-.92-.92a1 1 0 0 1-.126-1.262l.637-.956-.336-1.008L.757 9.58A1 1 0 0 1 0 8.61V7.39a1 1 0 0 1 .757-.97l1.355-.338.336-1.008-.637-.956a1 1 0 0 1 .125-1.261l.92-.92a1 1 0 0 1 1.262-.126l.956.637 1.008-.336L6.42.757ZM8.61 1H7.39l-.338 1.355a1 1 0 0 1-.654.706l-1.008.336a1 1 0 0 1-.87-.117l-.956-.637-.92.92.636.956a1 1 0 0 1 .117.871l-.336 1.008a1 1 0 0 1-.706.654L1 7.39v1.22l1.355.338a1 1 0 0 1 .706.654l.336 1.008a1 1 0 0 1-.117.87l-.637.956.92.92.956-.636a1 1 0 0 1 .871-.117l1.008.336a1 1 0 0 1 .654.706L7.39 15h1.22l.338-1.355a1 1 0 0 1 .654-.706l1.008-.336a1 1 0 0 1 .87.117l.956.637.92-.92-.587-.882a1 1 0 0 1 0-1.11l.72-1.08a1 1 0 0 1 .516-.394L15 8.64V7.36l-.995-.331a1 1 0 0 1-.516-.394l-.72-1.08a1 1 0 0 1 0-1.11l.588-.881-.92-.92-.956.636a1 1 0 0 1-.871.117l-1.008-.336a1 1 0 0 1-.654-.706L8.61 1ZM8 5.5a2.5 2.5 0 1 0 0 5 2.5 2.5 0 0 0 0-5ZM4.5 8a3.5 3.5 0 1 1 7 0 3.5 3.5 0 0 1-7 0Z" fill="#7A859E"/></svg>
